X: 1242
T: An Dro Moyland
R: reel
M: 4/4
K: Eminor
|:"Em"EB BA/B/ "D"cB AF/G/|"C" AF BA/G/ "B7"FE FG|
"Em"EB BA/B/ "D"cB AF/G/|"C" AF BA/G/ "B7"F/E/F/G/ E2:|
|:"Em"EE/E/ "D"FF/F/ "Em"EE/E/ "D"F>G|AF "E"BA/G/ "D"FE/F/ "E"GF|
"Em"EE/E/ "D"FF/F/ "Em"EE/E/ "D"F>G|AF "E"BA/G/ "D"F/E/F/G/ "E"E2:|
|:"Em"EG/A/ "G"B>A "Bm"Bd "Em"e2|ed/c/ "Bm"B>A "D"FA "Em"GF|
"Em"EG/A/ "G"B>A "Bm"Bd "Em"e2|ed/c/ "Bm"B>G "D"FG "Em"E2:|
|:"Em" B/c/B/A/ "D"FF/A/ "Bm"FF/A/ "Em"BG|B/c/B/A/ "D"FF/A/ "Bm"Bd "Em"BA|
"Em" B/c/B/A/ "D"FF/A/ "Bm"FF/A/ "Em"BG|B/c/B/A/ "D"FF/A/ B/A/G/F/ "Em"E2:|

